X:1
T:Ce Moys de May
T:Clement Janequin
T:Editor:  John Henry Fowler
T:        Ce Moys de May
T:                             SATB A Capella
C:Clement Janequin
Z:Editor:  John Henry Fowler
%%score [ 1 2 3 4 ]
L:1/8
Q:1/4=300
M:3/4
K:F
V:1 treble nm="P1"
V:2 treble nm="P2"
V:3 treble-8 transpose=-12 nm="P3"
V:4 bass transpose=-7 nm="P4"
V:1
S"^Revision:  2 - 24 - 2003" A2 | A4 G2 F4 G2 | G4 G2 E4 A2 | A4 G2"^( ca. 1485 - 1558 )" F4 F2 | %4
w: Ce|mos de may, ce|moys de may, ce|moys de may ma|
 B4 B2 A2 A2 c2 | c4 c2 A4 A2 | d4 d2 c2 c2 A2 | A4 A2 G4 F2 | (F3 D) E2 !fermata!F4 A2!fine! | %9
w: ver- te cot- te, ce|moys de may ma|ver- te cot- te, ce|moys de may je|ve- * sti- ray. De|
 F4 G2 A4 A2 | B4 B2 G4 F2 | A4 B2 c4 c2 | d4 d2 c4 A2 | F4 G2 A4 A2 | B4 B2 G4 A2 | A4 A2 A4 A2 | %16
w: bon ma- tin me|le- ve- ray, Ce|jo- ly, jo- ly|moys de may, de|bon ma- tin me|le- ve- ray: Un|sault, doux saultes, trois|
 A4 c2 B4 A2 | G4 F2 E4 C2 | F4 A2 G4 F2 | (F3 D) E2 F4 A2 | G2 A4 F4 c2 | B4 A2 G2 G2 A2 | %22
w: saults en ru- e|je fe- ray pour|veoir si mon a-|mi _ ver- ray. Et|luy di- ray qu'il|me des- crot- te, Me|
 G2 A4 F4 c2 | B4 A2 G4 A2!D.S.! |] %24
w: des- cro- tant le|bai- se- ray. Ce|
V:2
 F2 | F4 E2 D4 E2 | E4 D2 C4 F2 | F4 E2 D4 D2 | F4 F2 F2 F2 A2 | A4 G2 F4 F2 | B4 B2 A2 A2 F2 | %7
w: Ce|mos de may, ce|moys de may, ce|moys de may ma|ver- te cot- te, ce|moys de may ma|ver- te cot- te, ce|
 F4 F2 E4 D2 | D2 C4 !fermata!C4 C2 | D4 E2 F4 F2 | F4 F2 E4 A2 | F4 G2 A4 A2 | F4 G2 A4 C2 | %13
w: moys de may je|ve- sti- ray. De|bon ma- tin me|le- ve- ray, Ce|jo- ly, jo- ly|moys de may, de|
 D4 E2 F4 F2 | F4 F2 E4 F2 | F4 C2 C4 F2 | F4 F2 D4 F2 | D4 C2 C4 C2 | D4 F2 E4 D2 | D2 C4 C4 F2 | %20
w: bon ma- tin me|le- ve- ray: Un|sault, doux saultes, trois|saults en ru- e|je fe- ray pour|veoir si mon a-|mi- ver- ray. Et|
 E2 C4 D4 C2 | D4 F2 E2 E2 F2 | E2 C4 D4 C2 | D4 F2 E4 F2 |] %24
w: luy di- ray qu'il|me des- crot- te, Me|des- cro- tant le|bai- se- ray. Ce|
V:3
 c2 | c4 c2 A4 c2 | c4 G2 A4 c2 | c4 c2 A4 A2 | d4 d2 c2 c2 F2 | F4 c2 d4 d2 | G4 B2 F2 F2 c2 | %7
w: Ce|mos de may, ce|moys de may, ce|moys de may ma|ver- te cot- te, ce|moys de may ma|ver- te cot- te, ce|
 c4 c2 c4 A2 | B2 G4 !fermata!F4 F2 | A4 B2 c4 c2 | d4 d2 c4 F2 | D4 G2 F4 F2 | B4 B2 F4 F2 | %13
w: moys de may je|ve- sti- ray. De|bon ma- tin me|le- ve- ray, Ce|jo- ly, jo- ly|moys de may, de|
 A4 B2 c4 c2 | d4 d2 c4 c2 | c4 F2 F4 c2 | c4 A2 B4 c2 | B4 A2 G4 G2 | B4 c2 c4 A2 | B2 G4 F4 F2 | %20
w: bon ma- tin me|le- ve- ray: Un|sault, doux saultes, trois|saults en ru- e|je fe- ray pour|veoir si mon a-|mi- ver- ray. Et|
 c2 F4 B4 A2 | G4 F2 c2 c2 F2 | c2 F4 B4 A2 | G4 F2 c4 c2 |] %24
w: luy di- ray qu'il|me des- crot- te, Me|des- cro- tant le|bai- se- ray. Ce|
V:4
[K:C] C2 | C4 G,2 A,4 z2 | z4 z2 z4 C2 | C4 G,2 A,4 A,2 | F,4 F,2 C2 C2 z2 | z12 | z4 z2 z4 C2 | %7
w: Ce|mos de may,|ce|moys de may ma|ver- te cot- te,||ce|
 C4 C2 G,4 A,2 | F,2 G,4 !fermata!C,4 C2 | A,4 D2 C4 C2 | F,4 F,2 G,4 z2 | z12 | z4 z2 z4 C2 | %13
w: moys de may je|ve- sti- ray. De|* ma- tin me|le- ve- ray,||de|
 A,4 D2 C4 C2 | F,4 F,2 G,4 C2 | C4 z2 z4 C2 | C4 C2 D4 C2 | F,4 C2 G,4 G,2 | F,4 C2 G,4 A,2 | %19
w: bon ma- tin me|le- ve- ray: Un|sault, trois|saults en ru- e|je fe- ray pour|veoir si mon a-|
 F,2 G,4 C,4 z2 | z12 | z12 | z12 | z4 z2 z4 C2 |] %24
w: mi- ver- ray.||||Ce|

